src/img/ArrowPurpleL.svg

<svg fill="none" height="12" viewBox="0 0 9 12" width="9" xmlns="http://www.w3.org/2000/svg"><path d="m.259199 6.49409c-.0799-.0551-.145298-.1288-.1904982-.2147-.0451-.0859-.0687008-.1815-.0687008-.2786s.0236008-.1927.0687008-.2786c.0452002-.0859.1105982-.1596.1904982-.2146l7.799501-5.400404c.0899-.0625998.1953-.09919972.3046-.10599972.1093-.0069.2185.01639982.3155.06729982.097.0507999.1783.1273009.2349.2210009.0566.0938.0865.2013.0863.3109v10.800813c-.0005.1093-.0307.2165-.0875.3099-.0567.0934-.1379.1695-.2347.2202-.0968.0508-.2056.0741-.3147.0676s-.2143-.0426-.3044-.1044z" fill="#7a11ff" fill-opacity=".5"/></svg>

<svg width="9" height="12" viewBox="0 0 9 12" fill="none" xmlns="http://www.w3.org/2000/svg">
<path d="M0.259199 6.49409C0.179299 6.43899 0.113901 6.36529 0.0687008 6.27939C0.0236008 6.19349 0 6.09789 0 6.00079C0 5.90369 0.0236008 5.80809 0.0687008 5.72219C0.113901 5.63629 0.179299 5.56259 0.259199 5.50759L8.0587 0.107186C8.1486 0.0445862 8.254 0.00798628 8.3633 0.00118628C8.4726 -0.00571372 8.5818 0.0175861 8.6788 0.0684861C8.7758 0.119286 8.8571 0.195787 8.9137 0.289487C8.9703 0.383287 9.0002 0.490787 9 0.600387V11.4012C8.9995 11.5105 8.9693 11.6177 8.9125 11.7111C8.8558 11.8045 8.7746 11.8806 8.6778 11.9313C8.581 11.9821 8.4722 12.0054 8.3631 11.9989C8.254 11.9924 8.1488 11.9563 8.0587 11.8945L0.259199 6.49409Z" fill="#7A11FF" fill-opacity="0.5"/>
</svg>
